public/vscode-alt.svg

<svg xmlns="http://www.w3.org/2000/svg" fill="none" viewBox="0 0 100 100"><g clip-path="url(#a)" filter="url(#b)"><mask id="c" width="100" height="100" x="0" y="0" mask-type="alpha" maskUnits="userSpaceOnUse"><path fill="#fff" fill-rule="evenodd" d="M70.9119 99.5723c1.575.6167 3.3709.5777 4.9606-.1916l20.5879-9.9576C98.624 88.3771 100 86.1762 100 83.7616V16.2392c0-2.4145-1.376-4.6154-3.5396-5.6618L75.8725.619067c-2.0863-1.009058-4.5279-.761952-6.359.576203-.2615.19109-.5107.40458-.7445.63975L29.3551 37.9795 12.1872 24.88c-1.5981-1.2193-3.83355-1.1194-5.31782.2378l-5.50636 5.0347c-1.815623 1.6602-1.817603 4.5312-.00448 6.1941L16.2471 50.0001 1.35854 63.6536c-1.813123 1.6628-1.811143 4.534.00448 6.1941l5.50636 5.0347c1.48427 1.3571 3.71972 1.4576 5.31782.2377l17.1679-13.0994L68.769 98.1651c.6235.6272 1.3556 1.0994 2.1429 1.4072Zm4.1033-72.391-29.906 22.8188 29.906 22.8188V27.1813Z" clip-rule="evenodd"/></mask><g mask="url(#c)"><path fill="#D9D9D9" d="M96.4614 10.593 75.8567.62085c-2.385-1.154287-5.2352-.6674006-7.1069 1.21407L1.29834 63.6535c-1.814275 1.6629-1.812192 4.534.00447 6.1941l5.50969 5.0347c1.48521 1.3572 3.722 1.4567 5.321.2378L93.3604 13.18c2.725-2.078 6.6396-.1243 6.6396 3.3139v-.2404c0-2.4135-1.3761-4.6135-3.5386-5.6605Z"/><g filter="url(#d)"><path fill="#E6E6E6" d="m96.4614 89.4074-20.6047 9.9723c-2.385 1.1543-5.2352.6673-7.1069-1.2146L1.29834 36.3464c-1.814275-1.6627-1.812192-4.5339.00447-6.194l5.50969-5.0347c1.48521-1.3572 3.722-1.4571 5.321-.2377l81.2269 61.9401c2.725 2.0784 6.6396.1246 6.6396-3.314v.2409c0 2.4134-1.3761 4.6133-3.5386 5.6604Z"/></g><g filter="url(#e)"><path fill="#fff" d="M75.8578 99.3807c-2.3857 1.1543-5.2359.6663-7.1078-1.2156 2.3064 2.3179 6.25.6764 6.25-2.602V4.43709c0-3.27857-3.9435-4.920583-6.25-2.60217C70.6219-.0467614 73.4721-.534276 75.8578.618963L96.4583 10.5773C98.6229 11.6237 100 13.8246 100 16.2391v67.5225c0 2.4146-1.3771 4.6145-3.5417 5.6615l-20.6005 9.9576Z"/></g><path fill="url(#f)" fill-rule="evenodd" d="M70.8508 99.5723c1.575.6167 3.371.5777 4.9607-.1916L96.4 89.4231c2.1635-1.046 3.5386-3.2469 3.5386-5.6615V16.2391c0-2.4144-1.3751-4.6152-3.5386-5.6617L75.8115.618974c-2.0863-1.009059-4.528-.761845-6.359.576206-.2616.19119-.5107.40458-.7446.63975L29.2941 37.9795 12.1261 24.88c-1.5981-1.2194-3.8335-1.1195-5.31777.2377l-5.50635 5.0347c-1.81552 1.6602-1.817605 4.5313-.00448 6.1941L16.186 50 1.2975 63.6536c-1.813125 1.6628-1.81104 4.5339.00448 6.194l5.50635 5.0348c1.48427 1.3571 3.71967 1.4566 5.31777.2377l17.168-13.0994 39.4138 36.1444c.6236.6272 1.3556 1.0994 2.1429 1.4072Zm4.1034-72.3911L45.0481 50l29.9061 22.8188V27.1812Z" clip-rule="evenodd" opacity=".25" style="mix-blend-mode:overlay"/></g></g><defs><filter id="b" width="112.5" height="112.5" x="-6.25" y="-4.16667" color-interpolation-filters="sRGB" filterUnits="userSpaceOnUse"><feFlood flood-opacity="0" result="BackgroundImageFix"/><feColorMatrix in="SourceAlpha" values="0 0 0 0 0 0 0 0 0 0 0 0 0 0 0 0 0 0 127 0"/><feOffset dy="2.08333"/><feGaussianBlur stdDeviation="3.125"/><feColorMatrix values="0 0 0 0 0 0 0 0 0 0 0 0 0 0 0 0 0 0 0.15 0"/><feBlend in2="BackgroundImageFix" result="effect1_dropShadow"/><feBlend in="SourceGraphic" in2="effect1_dropShadow" result="shape"/></filter><filter id="d" width="116.728" height="92.6376" x="-8.39436" y="15.6951" color-interpolation-filters="sRGB" filterUnits="userSpaceOnUse"><feFlood flood-opacity="0" result="BackgroundImageFix"/><feColorMatrix in="SourceAlpha" values="0 0 0 0 0 0 0 0 0 0 0 0 0 0 0 0 0 0 127 0"/><feOffset/><feGaussianBlur stdDeviation="4.16667"/><feColorMatrix values="0 0 0 0 0 0 0 0 0 0 0 0 0 0 0 0 0 0 0.25 0"/><feBlend in2="BackgroundImageFix" mode="overlay" result="effect1_dropShadow"/><feBlend in="SourceGraphic" in2="effect1_dropShadow" result="shape"/></filter><filter id="e" width="47.9167" height="116.667" x="60.4167" y="-8.33346" color-interpolation-filters="sRGB" filterUnits="userSpaceOnUse"><feFlood flood-opacity="0" result="BackgroundImageFix"/><feColorMatrix in="SourceAlpha" values="0 0 0 0 0 0 0 0 0 0 0 0 0 0 0 0 0 0 127 0"/><feOffset/><feGaussianBlur stdDeviation="4.16667"/><feColorMatrix values="0 0 0 0 0 0 0 0 0 0 0 0 0 0 0 0 0 0 0.25 0"/><feBlend in2="BackgroundImageFix" mode="overlay" result="effect1_dropShadow"/><feBlend in="SourceGraphic" in2="effect1_dropShadow" result="shape"/></filter><linearGradient id="f" x1="49.939" x2="49.939" y1="-.00005198" y2="100.001" gradientUnits="userSpaceOnUse"><stop stop-color="#fff"/><stop offset="1" stop-color="#fff" stop-opacity="0"/></linearGradient><clipPath id="a"><path fill="#fff" d="M0 0h100v100H0z"/></clipPath></defs></svg>

<svg width="100" height="100" viewBox="0 0 100 100" fill="none" xmlns="http://www.w3.org/2000/svg">
<g clip-path="url(#clip0)">
<g filter="url(#filter0_d)">
<mask id="mask0" mask-type="alpha" maskUnits="userSpaceOnUse" x="0" y="0" width="100" height="100">
<path fill-rule="evenodd" clip-rule="evenodd" d="M70.9119 99.5723C72.4869 100.189 74.2828 100.15 75.8725 99.3807L96.4604 89.4231C98.624 88.3771 100 86.1762 100 83.7616V16.2392C100 13.8247 98.624 11.6238 96.4604 10.5774L75.8725 0.619067C73.7862 -0.389991 71.3446 -0.142885 69.5135 1.19527C69.252 1.38636 69.0028 1.59985 68.769 1.83502L29.3551 37.9795L12.1872 24.88C10.5891 23.6607 8.35365 23.7606 6.86938 25.1178L1.36302 30.1525C-0.452603 31.8127 -0.454583 34.6837 1.35854 36.3466L16.2471 50.0001L1.35854 63.6536C-0.454583 65.3164 -0.452603 68.1876 1.36302 69.8477L6.86938 74.8824C8.35365 76.2395 10.5891 76.34 12.1872 75.1201L29.3551 62.0207L68.769 98.1651C69.3925 98.7923 70.1246 99.2645 70.9119 99.5723ZM75.0152 27.1813L45.1092 50.0001L75.0152 72.8189V27.1813Z" fill="white"/>
</mask>
<g mask="url(#mask0)">
<path d="M96.4614 10.593L75.8567 0.62085C73.4717 -0.533437 70.6215 -0.0465506 68.7498 1.83492L1.29834 63.6535C-0.515935 65.3164 -0.513852 68.1875 1.30281 69.8476L6.8125 74.8823C8.29771 76.2395 10.5345 76.339 12.1335 75.1201L93.3604 13.18C96.0854 11.102 100 13.0557 100 16.4939V16.2535C100 13.84 98.6239 11.64 96.4614 10.593Z" fill="#D9D9D9"/>
<g filter="url(#filter1_d)">
<path d="M96.4614 89.4074L75.8567 99.3797C73.4717 100.534 70.6215 100.047 68.7498 98.1651L1.29834 36.3464C-0.515935 34.6837 -0.513852 31.8125 1.30281 30.1524L6.8125 25.1177C8.29771 23.7605 10.5345 23.6606 12.1335 24.88L93.3604 86.8201C96.0854 88.8985 100 86.9447 100 83.5061V83.747C100 86.1604 98.6239 88.3603 96.4614 89.4074Z" fill="#E6E6E6"/>
</g>
<g filter="url(#filter2_d)">
<path d="M75.8578 99.3807C73.4721 100.535 70.6219 100.047 68.75 98.1651C71.0564 100.483 75 98.8415 75 95.5631V4.43709C75 1.15852 71.0565 -0.483493 68.75 1.83492C70.6219 -0.0467614 73.4721 -0.534276 75.8578 0.618963L96.4583 10.5773C98.6229 11.6237 100 13.8246 100 16.2391V83.7616C100 86.1762 98.6229 88.3761 96.4583 89.4231L75.8578 99.3807Z" fill="white"/>
</g>
<g style="mix-blend-mode:overlay" opacity="0.25">
<path style="mix-blend-mode:overlay" opacity="0.25" fill-rule="evenodd" clip-rule="evenodd" d="M70.8508 99.5723C72.4258 100.189 74.2218 100.15 75.8115 99.3807L96.4 89.4231C98.5635 88.3771 99.9386 86.1762 99.9386 83.7616V16.2391C99.9386 13.8247 98.5635 11.6239 96.4 10.5774L75.8115 0.618974C73.7252 -0.390085 71.2835 -0.142871 69.4525 1.19518C69.1909 1.38637 68.9418 1.59976 68.7079 1.83493L29.2941 37.9795L12.1261 24.88C10.528 23.6606 8.2926 23.7605 6.80833 25.1177L1.30198 30.1524C-0.51354 31.8126 -0.515625 34.6837 1.2975 36.3465L16.186 50L1.2975 63.6536C-0.515625 65.3164 -0.51354 68.1875 1.30198 69.8476L6.80833 74.8824C8.2926 76.2395 10.528 76.339 12.1261 75.1201L29.2941 62.0207L68.7079 98.1651C69.3315 98.7923 70.0635 99.2645 70.8508 99.5723ZM74.9542 27.1812L45.0481 50L74.9542 72.8188V27.1812Z" fill="url(#paint0_linear)"/>
</g>
</g>
</g>
</g>
<defs>
<filter id="filter0_d" x="-6.25" y="-4.16667" width="112.5" height="112.5" filterUnits="userSpaceOnUse" color-interpolation-filters="sRGB">
<feFlood flood-opacity="0" result="BackgroundImageFix"/>
<feColorMatrix in="SourceAlpha" type="matrix" values="0 0 0 0 0 0 0 0 0 0 0 0 0 0 0 0 0 0 127 0"/>
<feOffset dy="2.08333"/>
<feGaussianBlur stdDeviation="3.125"/>
<feColorMatrix type="matrix" values="0 0 0 0 0 0 0 0 0 0 0 0 0 0 0 0 0 0 0.15 0"/>
<feBlend mode="normal" in2="BackgroundImageFix" result="effect1_dropShadow"/>
<feBlend mode="normal" in="SourceGraphic" in2="effect1_dropShadow" result="shape"/>
</filter>
<filter id="filter1_d" x="-8.39436" y="15.6951" width="116.728" height="92.6376" filterUnits="userSpaceOnUse" color-interpolation-filters="sRGB">
<feFlood flood-opacity="0" result="BackgroundImageFix"/>
<feColorMatrix in="SourceAlpha" type="matrix" values="0 0 0 0 0 0 0 0 0 0 0 0 0 0 0 0 0 0 127 0"/>
<feOffset/>
<feGaussianBlur stdDeviation="4.16667"/>
<feColorMatrix type="matrix" values="0 0 0 0 0 0 0 0 0 0 0 0 0 0 0 0 0 0 0.25 0"/>
<feBlend mode="overlay" in2="BackgroundImageFix" result="effect1_dropShadow"/>
<feBlend mode="normal" in="SourceGraphic" in2="effect1_dropShadow" result="shape"/>
</filter>
<filter id="filter2_d" x="60.4167" y="-8.33346" width="47.9167" height="116.667" filterUnits="userSpaceOnUse" color-interpolation-filters="sRGB">
<feFlood flood-opacity="0" result="BackgroundImageFix"/>
<feColorMatrix in="SourceAlpha" type="matrix" values="0 0 0 0 0 0 0 0 0 0 0 0 0 0 0 0 0 0 127 0"/>
<feOffset/>
<feGaussianBlur stdDeviation="4.16667"/>
<feColorMatrix type="matrix" values="0 0 0 0 0 0 0 0 0 0 0 0 0 0 0 0 0 0 0.25 0"/>
<feBlend mode="overlay" in2="BackgroundImageFix" result="effect1_dropShadow"/>
<feBlend mode="normal" in="SourceGraphic" in2="effect1_dropShadow" result="shape"/>
</filter>
<linearGradient id="paint0_linear" x1="49.939" y1="-5.19792e-05" x2="49.939" y2="100.001" gradientUnits="userSpaceOnUse">
<stop stop-color="white"/>
<stop offset="1" stop-color="white" stop-opacity="0"/>
</linearGradient>
<clipPath id="clip0">
<rect width="100" height="100" fill="white"/>
</clipPath>
</defs>
</svg>
